public/images/logo.svg

<svg xmlns="http://www.w3.org/2000/svg" width="100" height="24" viewBox="0 0 100 24"><path fill="#7AB266" d="M10.8 4.8v1.2h-6.2v3.8h5.1v.7c-.2 8.8-.4 11.6-1.1 12.4-.4.5-.8.7-1.5.7s-1.7 0-2.8-.1c0-.3-.2-.8-.4-1.1 1.3.1 2.4.1 2.8.1.4 0 .6-.1.8-.3.5-.6.7-3.4.9-11.2h-3.8c-.1 4-.8 8.7-3.8 12.8-.2-.2-.7-.5-1-.7 3.3-4.4 3.7-9.8 3.7-13.8v-3.3h-3.3v-1.2h10.6zm2.5.5c-.8 1.5-1.7 2.9-2.8 4-.2-.2-.7-.6-1-.8 2-1.9 3.5-4.8 4.4-7.9l1.3.3c-.4 1.2-.8 2.3-1.3 3.3h9.7v1.2h-10.3zm11.9 17l-.9 1c-5-3.5-6.7-7.2-7.8-13.3-.7.3-1.4.6-2.2.9v12.9h-1.2v-12.5c-.7.2-1.4.4-2 .6-.2-.3-.5-.8-.8-1.1 3.7-.8 8.7-2.7 11.1-4.5l.9.7c-1.2.9-2.9 1.8-4.8 2.6.3 1.6 1.4 9 7.7 12.7zM59.4 14.2c2-.7 4.1-1.1 5.9-1.1 3.5 0 5.9 2 5.9 4.7 0 3.1-2.1 4.7-5.2 5.4-1.1.3-2.1.3-3 .1l-.3-1.3c1.2.3 1.9.2 2.9 0 2.3-.4 4.5-1.6 4.5-4.3 0-2.3-2.2-3.5-4.7-3.5-2.1 0-3.9.4-5.9 1.1 0 2.1.1 4.5.1 5.7 0 1.8-.7 2.5-1.9 2.5-1.7 0-4.8-1.8-4.8-3.7 0-2 2.7-4.1 5.4-5.3v-1.2c0-1.2 0-2.6.1-3.9-.8.1-1.6.1-2.2.1-1.2 0-2.2 0-3-.1v-1.3c1.3.2 2.1.2 3 .2.6 0 1.4 0 2.2-.1 0-1.5.1-2.8.1-3.3s-.2-.9-.3-1.3h1.5c0 .4 0 .9-.1 1.4 0 .6-.1 1.8-.1 3.2 1.9-.2 4-.6 5.5-1.1l.1 1.3c-1.5.4-3.6.7-5.6 1 0 1.4-.1 2.8-.1 4v.8zm-1.1 6.9c0-1.1-.1-3.1-.1-5.2-2.3 1-4.1 2.7-4.1 4 0 1.3 2.1 2.5 3.3 2.5.7 0 .9-.5.9-1.3zM83.1 1.8c-.8 2-1.8 4-2.9 5.8v15.9h-1.2v-14c-1 1.5-2.1 2.8-3.2 3.9-.1-.3-.5-.9-.8-1.2 2.7-2.6 5.3-6.7 6.9-10.8l1.2.4zM95.3 15.8v-7.3h4v-1.2h-4v-5.6h-1.1v5.6h-6.1v-5.6h-1.2v5.6h-3.7v1.2h3.7v7.3h-4.5v1.2h17.3v-1.2h-4.4zm-1.1 0h-6.1v-7.3h6.1v7.3z"/><ellipse fill="#7AB266" cx="86.9" cy="21.4" rx="1.7" ry="1.7"/><ellipse fill="#7AB266" cx="6" cy="1.5" rx="1.7" ry="1.7"/><ellipse fill="#7AB266" cx="22.6" cy="13.4" rx="1.7" ry="1.7"/><ellipse fill="#7AB266" cx="69.7" cy="8.9" rx="1.7" ry="1.7"/><ellipse fill="#7AB266" cx="95.3" cy="21.4" rx="1.7" ry="1.7"/><path fill="#7AB266" d="M39.9 23.8v-1.3c1 0 3-.1 4.7-1.1 2.1-1.2 3.2-3.2 3.2-6 0-2.5-1-4.4-3.1-5.7-1.5-1-3.3-1.4-4.7-1.5-.1 2.1-.6 8.7-2.5 11.5-1.2 1.8-2.6 2.3-3.6 2.5-1 .1-1.7-.1-1.8-.1-.2-.1-1.2-.4-2.1-1.3-1.5-1.7-1.4-4.2-1-6 .6-2.7 2.1-4.8 4.5-6.2 2.6-1.4 5-1.6 6-1.6.8 0 3.5.1 6 1.7 2.4 1.5 3.6 3.8 3.6 6.7 0 1.8-.4 3.3-1.2 4.6-.6 1.1-1.6 1.9-2.7 2.6-1.9 1.1-4.1 1.2-5.3 1.2zm-1.1-15.5c-1.6.1-3.2.6-4.5 1.4-2.1 1.2-3.4 3-3.9 5.4-.5 2.1-.2 3.8.7 4.9.6.8 1.4.9 1.4.9.1 0 2.2.8 4-1.9.8-1.2 1.5-3.5 1.9-6.8.3-1.5.4-3 .4-3.9z"/></svg>

<?xml version="1.0" encoding="utf-8"?>
<!-- Generator: Adobe Illustrator 16.0.4, SVG Export Plug-In . SVG Version: 6.00 Build 0)  -->
<!DOCTYPE svg PUBLIC "-//W3C//DTD SVG 1.1//EN" "http://www.w3.org/Graphics/SVG/1.1/DTD/svg11.dtd">
<svg version="1.1" id="レイヤー_1" xmlns="http://www.w3.org/2000/svg" xmlns:xlink="http://www.w3.org/1999/xlink" x="0px"
	 y="0px" width="100px" height="24px" viewBox="0 0 100 24" enable-background="new 0 0 100 24" xml:space="preserve">
<path fill="#7AB266" d="M10.8,4.8V6H4.6v3.3v0.5h5.1v0.7c-0.2,8.8-0.4,11.6-1.1,12.4c-0.4,0.5-0.8,0.7-1.5,0.7c-0.7,0-1.7,0-2.8-0.1
	c0-0.3-0.2-0.8-0.4-1.1c1.3,0.1,2.4,0.1,2.8,0.1c0.4,0,0.6-0.1,0.8-0.3C8,21.6,8.2,18.8,8.4,11H4.6c-0.1,4-0.8,8.7-3.8,12.8
	c-0.2-0.2-0.7-0.5-1-0.7c3.3-4.4,3.7-9.8,3.7-13.8V6H0.2V4.8H10.8z M13.3,5.3c-0.8,1.5-1.7,2.9-2.8,4c-0.2-0.2-0.7-0.6-1-0.8
	c2-1.9,3.5-4.8,4.4-7.9l1.3,0.3c-0.4,1.2-0.8,2.3-1.3,3.3h9.7v1.2H13.3z M25.2,22.3l-0.9,1c-5-3.5-6.7-7.2-7.8-13.3
	c-0.7,0.3-1.4,0.6-2.2,0.9v12.9h-1.2V11.3c-0.7,0.2-1.4,0.4-2,0.6c-0.2-0.3-0.5-0.8-0.8-1.1C14,10,19,8.1,21.4,6.3L22.3,7
	c-1.2,0.9-2.9,1.8-4.8,2.6C17.8,11.2,18.9,18.6,25.2,22.3z"/>
<path fill="#7AB266" d="M59.4,14.2c2-0.7,4.1-1.1,5.9-1.1c3.5,0,5.9,2,5.9,4.7c0,3.1-2.1,4.7-5.2,5.4c-1.1,0.3-2.1,0.3-3,0.1
	L62.7,22c1.2,0.3,1.9,0.2,2.9,0c2.3-0.4,4.5-1.6,4.5-4.3c0-2.3-2.2-3.5-4.7-3.5c-2.1,0-3.9,0.4-5.9,1.1c0,2.1,0.1,4.5,0.1,5.7
	c0,1.8-0.7,2.5-1.9,2.5c-1.7,0-4.8-1.8-4.8-3.7c0-2,2.7-4.1,5.4-5.3v-1.2c0-1.2,0-2.6,0.1-3.9c-0.8,0.1-1.6,0.1-2.2,0.1
	c-1.2,0-2.2,0-3-0.1l0-1.3c1.3,0.2,2.1,0.2,3,0.2c0.6,0,1.4,0,2.2-0.1c0-1.5,0.1-2.8,0.1-3.3S58.3,4,58.2,3.6h1.5
	C59.7,4,59.7,4.5,59.6,5c0,0.6-0.1,1.8-0.1,3.2c1.9-0.2,4-0.6,5.5-1.1l0.1,1.3c-1.5,0.4-3.6,0.7-5.6,1c0,1.4-0.1,2.8-0.1,4V14.2z
	 M58.3,21.1c0-1.1-0.1-3.1-0.1-5.2c-2.3,1-4.1,2.7-4.1,4c0,1.3,2.1,2.5,3.3,2.5C58.1,22.4,58.3,21.9,58.3,21.1z"/>
<path fill="#7AB266" d="M83.1,1.8c-0.8,2-1.8,4-2.9,5.8v15.9H79V9.5c-1,1.5-2.1,2.8-3.2,3.9c-0.1-0.3-0.5-0.9-0.8-1.2
	c2.7-2.6,5.3-6.7,6.9-10.8L83.1,1.8z"/>
<path fill="#7AB266" d="M95.3,15.8V8.5h4V7.3h-4V1.7h-1.1v5.6h-6.1V1.7h-1.2v5.6h-3.7v1.2h3.7v7.3h-4.5v1.2h17.3v-1.2H95.3z
	 M94.2,15.8h-6.1V8.5h6.1V15.8z"/>
<ellipse fill="#7AB266" cx="86.9" cy="21.4" rx="1.7" ry="1.7"/>
<ellipse fill="#7AB266" cx="6" cy="1.5" rx="1.7" ry="1.7"/>
<ellipse fill="#7AB266" cx="22.6" cy="13.4" rx="1.7" ry="1.7"/>
<ellipse fill="#7AB266" cx="69.7" cy="8.9" rx="1.7" ry="1.7"/>
<ellipse fill="#7AB266" cx="95.3" cy="21.4" rx="1.7" ry="1.7"/>
<path fill="#7AB266" d="M39.9,23.8v-1.3c1,0,3-0.1,4.7-1.1c2.1-1.2,3.2-3.2,3.2-6c0-2.5-1-4.4-3.1-5.7c-1.5-1-3.3-1.4-4.7-1.5
	c-0.1,2.1-0.6,8.7-2.5,11.5c-1.2,1.8-2.6,2.3-3.6,2.5c-1,0.1-1.7-0.1-1.8-0.1c-0.2-0.1-1.2-0.4-2.1-1.3c-1.5-1.7-1.4-4.2-1-6
	c0.6-2.7,2.1-4.8,4.5-6.2C36.1,7.2,38.5,7,39.5,7c0.8,0,3.5,0.1,6,1.7c2.4,1.5,3.6,3.8,3.6,6.7c0,1.8-0.4,3.3-1.2,4.6
	c-0.6,1.1-1.6,1.9-2.7,2.6C43.3,23.7,41.1,23.8,39.9,23.8z M38.8,8.3c-1.6,0.1-3.2,0.6-4.5,1.4c-2.1,1.2-3.4,3-3.9,5.4
	c-0.5,2.1-0.2,3.8,0.7,4.9c0.6,0.8,1.4,0.9,1.4,0.9l0,0l0,0c0.1,0,2.2,0.8,4-1.9c0.8-1.2,1.5-3.5,1.9-6.8
	C38.7,10.7,38.8,9.2,38.8,8.3z"/>
</svg>
